X:4444
T:When You Wish Upon a Star (Part I)
C:Andrew Torgesen
M:4/4
L:1/4
Q:1/4=100
K:E
V:1
V:2 bass 
%
[V:1] B,BAG|^EFc2|DdcB|
[V:2] E,,/2B,,/2E,/2F,/2G,/2B,3/2|F,,/2F,/2A,/2B,/2C2|B,,/2F,/2B,/2F,/2C/2F,/2B,/2F,/2|
%
[V:1] ^ABe2|fedc|BA !fermata![CG]F|
[V:2] E,/2B,/2E/2B,/2F/2B,/2E/2B,/2|G,,/2E,/2G,/2E,/2=G,,/2D,/2G,/2D,/2|F,,/2C,/2F,/2C,/2!fermata![A,,2E,2A,2]|
%
[V:1] c2C3/2D/2|B4|
[V:2] A,,/2E,/2A,/2B,/2B,,/2F,/2B,/2C/2| E,,/2B,,/2E,/2F,/2G,/2B,/2E/2F/2|
